!!!!SEGMENT: pl-kozmzk--mzk-m-346--055_walczynski-franciszek--cantantibus-organis-adagio.krn
!!!cenid: 18xx:2850
!!!COM: Walczyński, Franciszek
!!!COM-rismID: pe30021989
!!!CDT: ~1852-1937
!!!CNT: Polish
!!!GTL: Cantantibus organis op. 10
!!!OTL: 55. Adagio
!!!OMV: 055
!!!PDT: 1898
!!!AGN: Secular
!!!SMS-siglum: PL-KOZmzk
!!!SMS-shelfmark: mzk/m/346
!!!SMS-shelfwork: 001-055 G
!!!SMS-variant:
!!!SMS-altvar:
!!!NIFC-rismSourceID: 1001099615
!!!NIFC-rismChildID: 1001109657
!!!NIFC-islandoraID: pl-kozmzk:7453
!!!URL-pdf-islandora: https://repozytorium.nifc.pl/islandora/object/pl-kozmzk%3A7453/datastream/PDF/view
!!!URL-scan: https://polish.musicsources.pl/pl/lokalizacje/galeria/druki-muzyczne/7581 @EN{Scan on Polish Music Sources Website} @PL{Skany w portalu Dziedzictwo Muzyki Polskiej w otwartym dostępie}
!!!IIIF:
!!!ONB-nifc:
!!!OMD: Adagio.
!!!AIN: 1 empty
!!!key:
**kern	**kern	**dynam
*part1	*part1	*part1
*staff2	*staff1	*
*Iempty	*Iempty	*
*I"55.	*I"55.	*
*clefF4	*clefG2	*
*k[b-e-a-d-]	*k[b-e-a-d-]	*
*f:	*f:	*
*M2/4	*M2/4	*
=1	=1	=1
*^	*^	*
!	!	!	!	!LO:DY:a=2
2r	(4F\	2rg	2r	p
.	8En\L	.	.	.
.	8F\J	.	.	.
=2	=2	=2	=2	=2
2r	4A-\	2rg	2r	.
.	8G\L	.	.	.
.	8F\J)	.	.	.
=3	=3	=3	=3	=3
(4c/	(4En\	2rg	2r	.
8Bn/L	4C\	.	.	.
8c/J	.	.	.	.
=4	=4	=4	=4	=4
4d-/	2En\)	2rg	2r	.
8c/L	.	.	.	.
8B-X/J)	.	.	.	.
=5	=5	=5	=5	=5
(2A-/	[2F\	2rff	(4f\	.
.	.	.	8en\L	.
.	.	.	8f\J	.
=6	=6	=6	=6	=6
4c/	2F\]	2rff	4a-\	.
8B-/L	.	.	8g\L	.
8A-/J)	.	.	8f\J)	.
=7	=7	=7	=7	=7
(2G/	[2En\	(4cc/	[2c\	f
.	.	8bn/L	.	.
.	.	8cc/J	.	.
=8	=8	=8	=8	=8
4B-/	2E\]	4dd-/	2c\]	.
8A-/L	.	8cc/L	.	.
8G/J	.	8b-/J)	.	.
!!LO:LB:g=original
=9	=9	=9	=9	=9
[2F/	(2D-\	4a-/	[2d-\	p
.	.	8g/L	.	.
.	.	8a-/J	.	.
=10	=10	=10	=10	=10
4F/]	2BB-\)	4b-/	2d-\]	.
4B-/)	.	8a-/L	.	.
.	.	8g/J	.	.
=11	=11	=11	=11	=11
!	!LO:TX:b:i:t=Ped.	!	!	!LO:DY:a
(4A-/	[2C\	(4f/	([2c\	pp
8G/L	.	8en/L	.	.
8F/J	.	8dn/J	.	.
=12	=12	=12	=12	=12
4G/	2C\]	4en/	4.c\]	.
4En/	.	4g/	.	.
.	.	.	8B-\	.
=13	=13	=13	=13	=13
4F/	[2FF\	[2f/)	2A-\)	.
8En/L	.	.	.	.
8F/J)	.	.	.	.
=14	=14	=14	=14	=14
(4E-X/	2FF\_	2f/_	(4c\	.
4D-X/	.	.	8B-\L	.
.	.	.	8A-\J	.
=15	=15	=15	=15	=15
!	!	!	!	!LO:DY:a
4C/	2FF\_	2f/_	4A-\	>
4D-/	.	.	8B-\L	.
!LO:TX:b:i:t=rit.	!	!	!	!
.	.	.	8G\J	.
=16	=16	=16	=16	=16
2C/)	2FF;\]	2f;/]	2A-\)	]
*v	*v	*	*	*
*	*v	*v	*
==	==	==
*-	*-	*-
!!!system-decoration: {(s1,s2)}
!!!ENC: Andrzej Kubiczek
!!!END: 2021-08-09
!!!ENC: Anastazja Marusiak
!!!END: 2021-07-28
!!!YEC: Copyright 2022 Narodowy Instytut Fryderyka Chopina (https://polishscores.org)
!!!YEM: License CC-BY-4.0 (https://creativecommons.org/licenses/by/4.0)
